app/style/icons/buy-decred.svg

<svg viewBox="4565 1316 20 20" xmlns="http://www.w3.org/2000/svg"><path d="m4565 1316h20v20h-20z" fill="none"/><path d="m28.333 364.644h-1.111v-1.644h-1.111v1.644h-1.111v1.111h3.333z" fill="#b6ceff" transform="translate(4541.111 969.133)"/><path d="m27.222 152.8v-1.689h1.111v-1.111h-3.333v1.111h1.111v1.689z" fill="#b6ceff" transform="translate(4541.111 1172.667)"/><path d="m27.222 219.667h1.111v-6.667h-3.333v6.667z" fill="#2971ff" transform="translate(4541.111 1112.467)"/><path d="m134.111 288v1.644h-1.111v1.111h3.333v-1.111h-1.111v-1.644z" fill="#b6ceff" transform="translate(4437.911 1040.8)"/><path d="m133 76.111h1.111v1.689h1.111v-1.689h1.111v-1.111h-3.333z" fill="#b6ceff" transform="translate(4437.911 1244.333)"/><path d="m134.111 138h-1.111v6.667h3.333v-6.667z" fill="#2971ff" transform="translate(4437.911 1184.133)"/><path d="m241 239.644v1.111h3.333v-1.111h-1.111v-1.644h-1.111v1.644z" fill="#b6ceff" transform="translate(4334.711 1088.578)"/><path d="m243.222 27.8v-1.689h1.111v-1.111h-3.333v1.111h1.111v1.689z" fill="#b6ceff" transform="translate(4334.711 1292.111)"/><path d="m243.222 94.667h1.111v-6.667h-3.333v6.667z" fill="#2971ff" transform="translate(4334.711 1231.911)"/><path d="m351.111 313v1.644h-1.111v1.111h3.333v-1.111h-1.111v-1.644z" fill="#b6ceff" transform="translate(4230.556 1016.911)"/><path d="m350 101.111h1.111v1.689h1.111v-1.689h1.111v-1.111h-3.333z" fill="#b6ceff" transform="translate(4230.556 1220.444)"/><path d="m351.111 163h-1.111v6.667h3.333v-6.667z" fill="#2971ff" transform="translate(4230.556 1160.244)"/></svg>

<svg xmlns="http://www.w3.org/2000/svg" viewBox="4565 1316 20 20"><defs><style>.a{fill:none;}.b{fill:#b6ceff;}.c{fill:#2971ff;}</style></defs><g transform="translate(4196 850)"><rect class="a" width="20" height="20" transform="translate(369 466)"/><path class="b" d="M28.333,364.644H27.222V363H26.111v1.644H25v1.111h3.333Z" transform="translate(345.111 119.133)"/><path class="b" d="M27.222,152.8v-1.689h1.111V150H25v1.111h1.111V152.8h1.111Z" transform="translate(345.111 322.667)"/><path class="c" d="M27.222,219.667h1.111V213H25v6.667h2.222Z" transform="translate(345.111 262.467)"/><path class="b" d="M134.111,288v1.644H133v1.111h3.333v-1.111h-1.111V288Z" transform="translate(241.911 190.8)"/><path class="b" d="M133,76.111h1.111V77.8h1.111V76.111h1.111V75H133Z" transform="translate(241.911 394.333)"/><path class="c" d="M134.111,138H133v6.667h3.333V138h-2.222Z" transform="translate(241.911 334.133)"/><path class="b" d="M241,239.644v1.111h3.333v-1.111h-1.111V238h-1.111v1.644Z" transform="translate(138.711 238.578)"/><path class="b" d="M243.222,27.8V26.111h1.111V25H241v1.111h1.111V27.8h1.111Z" transform="translate(138.711 442.111)"/><path class="c" d="M243.222,94.667h1.111V88H241v6.667h2.222Z" transform="translate(138.711 381.911)"/><path class="b" d="M351.111,313v1.644H350v1.111h3.333v-1.111h-1.111V313h-1.111Z" transform="translate(34.556 166.911)"/><path class="b" d="M350,101.111h1.111V102.8h1.111v-1.689h1.111V100H350Z" transform="translate(34.556 370.444)"/><path class="c" d="M351.111,163H350v6.667h3.333V163h-2.222Z" transform="translate(34.556 310.244)"/></g></svg>
